src/images_karasa_jaga_svg/cmd/lc_fontworkshapetype.fontwork-fade-left.svg

<svg height="24" viewBox="0 0 24 24" width="24" xmlns="http://www.w3.org/2000/svg" xmlns:xlink="http://www.w3.org/1999/xlink"><linearGradient id="a" gradientUnits="userSpaceOnUse" x1="63.9991" x2="63.9991" y1="128" y2=".0018"><stop offset="0" stop-color="#fff"/><stop offset=".46428573" stop-color="#fff"/><stop offset=".78125" stop-color="#f1f1f1"/><stop offset=".90625" stop-color="#eaeaea"/><stop offset="1" stop-color="#dfdfdf"/></linearGradient><linearGradient id="b" gradientUnits="userSpaceOnUse" x1="63.9991" x2="63.9991" y1="128" y2=".0018"><stop offset="0" stop-color="#7c9fcf"/><stop offset=".5" stop-color="#7c9ece"/><stop offset="1" stop-color="#7b9dcf"/></linearGradient><g transform="matrix(-.171875 0 0 .171875 22.999832 1)"><path d="m5.7675781 5.8144531a5.8251235 5.8251235 0 0 0 -5.77343748 5.8242189v104.724608a5.8251235 5.8251235 0 0 0 7.49804688 5.57813l116.3613325-34.908207a5.8251235 5.8251235 0 0 0 4.15039-5.578125v-34.908203a5.8251235 5.8251235 0 0 0 -4.15039-5.578125l-116.3613325-34.9082031a5.8251235 5.8251235 0 0 0 -1.7246094-.2460938z" fill="url(#b)"/><path d="m5.8181 11.638 116.362 34.9086v34.9086l-116.362 34.9086z" fill="url(#a)"/></g></svg>

<?xml version="1.0" encoding="UTF-8" standalone="no"?>
<!-- Created with Inkscape (http://www.inkscape.org/) -->

<svg
   xmlns:dc="http://purl.org/dc/elements/1.1/"
   xmlns:cc="http://creativecommons.org/ns#"
   xmlns:rdf="http://www.w3.org/1999/02/22-rdf-syntax-ns#"
   xmlns:svg="http://www.w3.org/2000/svg"
   xmlns="http://www.w3.org/2000/svg"
   xmlns:xlink="http://www.w3.org/1999/xlink"
   xmlns:sodipodi="http://sodipodi.sourceforge.net/DTD/sodipodi-0.dtd"
   xmlns:inkscape="http://www.inkscape.org/namespaces/inkscape"
   version="1.1"
   id="svg2"
   width="128"
   height="128"
   viewBox="0 0 128 128"
   sodipodi:docname="lc_fontworkshapetype.fontwork-fade-left.svg"
   inkscape:export-filename="/home/rizmut/Dokumen/Rizmut/Github/libreoffice-style-karasa-jaga/build/images_karasa_jaga/cmd/lc_fontworkshapetype.fontwork-fade-left.png"
   inkscape:export-xdpi="16.5"
   inkscape:export-ydpi="16.5"
   inkscape:version="0.92.3 (unknown)">
  <metadata
     id="metadata8">
    <rdf:RDF>
      <cc:Work
         rdf:about="">
        <dc:format>image/svg+xml</dc:format>
        <dc:type
           rdf:resource="http://purl.org/dc/dcmitype/StillImage" />
        <dc:title></dc:title>
      </cc:Work>
    </rdf:RDF>
  </metadata>
  <defs
     id="defs6">
    <linearGradient
       id="linearGradient7422">
      <stop
         style="stop-color:#7c9fcf;stop-opacity:1"
         offset="0"
         id="stop7424" />
      <stop
         id="stop5348"
         offset="0.5"
         style="stop-color:#7c9ece;stop-opacity:1" />
      <stop
         id="stop7426"
         offset="1"
         style="stop-color:#7b9dcf;stop-opacity:1" />
    </linearGradient>
    <linearGradient
       id="linearGradient3369">
      <stop
         id="stop3372"
         offset="0"
         style="stop-color:#ffffff;stop-opacity:1;" />
      <stop
         style="stop-color:#ffffff;stop-opacity:1;"
         offset="0.46428573"
         id="stop3374" />
      <stop
         style="stop-color:#f1f1f1;stop-opacity:1;"
         offset="0.78125"
         id="stop3376" />
      <stop
         id="stop3378"
         offset="0.90625"
         style="stop-color:#eaeaea;stop-opacity:1;" />
      <stop
         id="stop3384"
         offset="1"
         style="stop-color:#dfdfdf;stop-opacity:1;" />
    </linearGradient>
    <linearGradient
       inkscape:collect="always"
       xlink:href="#linearGradient3369"
       id="linearGradient1290"
       x1="63.9991"
       y1="128"
       x2="63.9991"
       y2="0.0018"
       gradientUnits="userSpaceOnUse" />
    <linearGradient
       inkscape:collect="always"
       xlink:href="#linearGradient7422"
       id="linearGradient1294"
       gradientUnits="userSpaceOnUse"
       x1="63.9991"
       y1="128"
       x2="63.9991"
       y2="0.0018" />
  </defs>
  <sodipodi:namedview
     pagecolor="#ffffff"
     bordercolor="#666666"
     borderopacity="1"
     objecttolerance="10"
     gridtolerance="10"
     guidetolerance="10"
     inkscape:pageopacity="0"
     inkscape:pageshadow="2"
     inkscape:window-width="1366"
     inkscape:window-height="706"
     id="namedview4"
     showgrid="true"
     inkscape:snap-page="true"
     inkscape:snap-global="false"
     inkscape:zoom="2.4494288"
     inkscape:cx="29.670922"
     inkscape:cy="90.290941"
     inkscape:window-x="0"
     inkscape:window-y="0"
     inkscape:window-maximized="1"
     inkscape:current-layer="svg2">
    <inkscape:grid
       type="xygrid"
       id="grid812"
       spacingx="5.8181"
       spacingy="5.8181"
       empspacing="1" />
  </sodipodi:namedview>
  <g
     id="g1319"
     transform="matrix(-1,0,0,1,127.99805,0)">
    <path
       d="M 5.7675781,5.8144531 A 5.8251235,5.8251235 0 0 0 -0.00585938,11.638672 V 116.36328 a 5.8251235,5.8251235 0 0 0 7.49804688,5.57813 L 123.85352,87.033203 a 5.8251235,5.8251235 0 0 0 4.15039,-5.578125 V 46.546875 A 5.8251235,5.8251235 0 0 0 123.85352,40.96875 L 7.4921875,6.0605469 A 5.8251235,5.8251235 0 0 0 5.7675781,5.8144531 Z"
       id="path1292"
       style="opacity:1;fill:url(#linearGradient1294);fill-opacity:1;stroke:none;stroke-width:5;stroke-linecap:round;stroke-linejoin:bevel;stroke-miterlimit:4;stroke-dasharray:none;stroke-dashoffset:0;stroke-opacity:1"
       inkscape:original="M 5.8183594 11.638672 L 5.8183594 116.36328 L 122.17969 81.455078 L 122.17969 46.546875 L 5.8183594 11.638672 z "
       inkscape:radius="5.8245411"
       sodipodi:type="inkscape:offset" />
    <path
       style="opacity:1;fill:url(#linearGradient1290);fill-opacity:1;stroke:none;stroke-width:5;stroke-linecap:round;stroke-linejoin:bevel;stroke-miterlimit:4;stroke-dasharray:none;stroke-dashoffset:0;stroke-opacity:1"
       d="m 5.8181,11.638 116.362,34.9086 V 81.4552 L 5.8181,116.3638 Z"
       id="rect3937"
       inkscape:connector-curvature="0"
       sodipodi:nodetypes="ccccc" />
  </g>
</svg>
